X: 1553
T: The Hut That's Upside Down
B: australian traditional tunes wiki
M:6/8
L:1/8
R: Jig
Q: 3/8=100
K:G
V:1 
B|"G" d2dB2D|G2GG2B|d2BA2G|"C"E3E2B|"D7"c2BA2D|F2Ad2d|e2dd2G|"G"B3-B2B|
"G"d2dB2D|G2GG2B|d2BA2G|"C"E3-E2B|"D7"c2BA2D|F2Ad2d|e2dd2F|"G"G3z3||
% abcbook-tune_id 6342d53ae532359660e4aab5


% abcbook-boost 0
% abcbook-tablature 
% abcbook-transpose 
% abcbook-lastupdated 1665324370715
% abcbook-soundfonts 
% abcbook-repeats 1
% NFF Book 2015

